X: 092
T: Doublings when Colours is receiv'd
B: C. & S. Thompson, "The Compleat Tutor for the Fife" c.1760 p.9 #2
S: http://imslp.org/wiki/The_Compleat_Tutor_for_the_Fife_(Anonymous)
Z: 2014 John Chambers <jc:trillian.mit.edu>
M: 2/4
L: 1/16
K: G
% - - - - - - - - - - - - - - - - - - - - - - - - -
|:\
G4 d4 | {c}TB2AB G4 | g2d2 {c}TB2AG | d4 Td4 :|\
|:\
d^cdB e2Te2 | =cBcA d4 | {c}TB2AG A2d2 | G4 G4 :|
% - - - - - - - - - - - - - - - - - - - - - - - - -

%%sep 1 1 500
%%sep 1 1 500

